icon-themes/breeze_svg/cmd/32/deleteallannotation.svg

<svg viewBox="0 0 32 32" xmlns="http://www.w3.org/2000/svg"><path d="m12 4v6h-8v12l6 6v-6h9v-8h3v6l6-6v-10zm1 1h14v8h-14zm-8 6h7v3h6v7h-13zm15.707031 9-.707031.707031 3.292969 3.292969-3.292969 3.292969c.0126.0252.707031.707031.707031.707031l3.292969-3.292969 3.292969 3.292969.707031-.707031-3.292969-3.292969 3.292969-3.292969-.707031-.707031-3.292969 3.292969z" fill="#f47750"/></svg>

<svg xmlns="http://www.w3.org/2000/svg" viewBox="0 0 32 32">
 <path 
     style="fill:#f47750" 
     d="M 12 4 L 12 10 L 4 10 L 4 22 L 10 28 L 10 22 L 19 22 L 19 14 L 22 14 L 22 20 L 28 14 L 28 4 L 12 4 z M 13 5 L 27 5 L 27 13 L 13 13 L 13 5 z M 5 11 L 12 11 L 12 14 L 18 14 L 18 21 L 5 21 L 5 11 z M 20.707031 20 L 20 20.707031 L 23.292969 24 L 20 27.292969 C 20.0126 27.318169 20.707031 28 20.707031 28 L 24 24.707031 L 27.292969 28 L 28 27.292969 L 24.707031 24 L 28 20.707031 L 27.292969 20 L 24 23.292969 L 20.707031 20 z "
     />
</svg>
